svg/u1f234.svg

<svg viewBox="0 0 128 128" xmlns="http://www.w3.org/2000/svg">
  <g>
    <path d="M116,4H12c-4.42,0-8,3.58-8,8v104c0,4.42,3.58,8,8,8h104c4.42,0,8-3.58,8-8V12 C124,7.58,120.42,4,116,4z" fill="#CC3333"/>
    <path d="M109.7,4H11.5C7.37,4.03,4.03,7.37,4,11.5v97.9c-0.01,4.14,3.34,7.49,7.48,7.5c0.01,0,0.01,0,0.02,0 h98.1c4.14,0.01,7.49-3.34,7.5-7.48c0-0.01,0-0.01,0-0.02V11.5c0.09-4.05-3.13-7.41-7.18-7.5C109.85,4,109.77,4,109.7,4z" fill="#F44336"/>
    <path d="M39.7,12.9c0-2.3-1.6-3-10.8-2.7c-7.7,0.3-11.5,1.2-13.8,4s-2.9,8.5-3,15.3c0,4.8,0,9.3,2.5,9.3 c3.4,0,3.4-7.9,6.2-12.3C26.2,17.8,39.7,15.9,39.7,12.9z" fill="#FF8A80"/>
    <path d="M71.6,21.2c-0.33,0.52-0.7,1.02-1.1,1.5c-0.49,0.72-0.41,1.68,0.2,2.3 c10.8,10.3,22.6,17.1,35.5,22.5c0.89,0.4,1.3,1.44,0.9,2.34c-0.08,0.17-0.18,0.33-0.3,0.46c-1.41,1.47-2.62,3.12-3.6,4.9 c-0.46,0.8-1.47,1.11-2.3,0.7c-3.6-1.8-7.2-3.6-10.7-5.6c-0.83-0.48-1.88-0.2-2.37,0.63c-0.15,0.27-0.24,0.57-0.23,0.87v1.6 c0.01,0.99-0.79,1.79-1.78,1.8c-0.01,0-0.01,0-0.02,0H41.4c-0.99,0.01-1.79-0.79-1.8-1.78c0-0.01,0-0.01,0-0.02 c-0.01-0.96-0.79-1.73-1.75-1.73c-0.3,0-0.59,0.08-0.85,0.23c-3.19,1.93-6.5,3.67-9.9,5.2c-0.75,0.34-1.64,0.09-2.1-0.6 c-1.21-1.74-2.51-3.41-3.9-5c-0.65-0.73-0.59-1.85,0.14-2.5c0.14-0.12,0.29-0.23,0.46-0.3C38.3,41.6,54.5,30.3,64,16.8 c0.49-0.71,1.42-0.97,2.2-0.6l4.8,2.4c0.87,0.5,1.17,1.61,0.67,2.48C71.65,21.12,71.63,21.16,71.6,21.2z M36,65.1h56.7 c0.99-0.01,1.79,0.79,1.8,1.78c0,0.01,0,0.01,0,0.02v35c0.01,0.99-0.79,1.79-1.78,1.8c-0.01,0-0.01,0-0.02,0h-5.9 c-0.99,0.01-1.79-0.79-1.8-1.78c0-0.01,0-0.01,0-0.02V101c0.01-0.99-0.79-1.79-1.78-1.8c-0.01,0-0.01,0-0.02,0H45 c-0.99-0.01-1.79,0.79-1.8,1.78c0,0.01,0,0.01,0,0.02v1.3c0.01,0.99-0.79,1.79-1.78,1.8c-0.01,0-0.01,0-0.02,0H36 c-0.99,0.01-1.79-0.79-1.8-1.78c0-0.01,0-0.01,0-0.02V66.8C34.24,65.84,35.04,65.08,36,65.1z M43.3,74.8v14.3 c-0.01,0.99,0.79,1.79,1.78,1.8c0.01,0,0.01,0,0.02,0h38.2c0.99,0.01,1.79-0.79,1.8-1.78c0-0.01,0-0.01,0-0.02V74.8 c0.01-0.99-0.79-1.79-1.78-1.8c-0.01,0-0.01,0-0.02,0H45C44.05,73.07,43.32,73.85,43.3,74.8z M80,43.6 c-5.13-3.7-10.01-7.74-14.6-12.1c-0.7-0.66-1.81-0.63-2.47,0.07c-0.01,0.01-0.02,0.02-0.03,0.03c-4.16,4.39-8.68,8.44-13.5,12.1 c-0.76,0.58-0.9,1.67-0.31,2.43c0.34,0.44,0.86,0.69,1.41,0.67H79c0.97-0.01,1.75-0.8,1.75-1.77C80.74,44.46,80.47,43.93,80,43.6z" fill="#FAFAFA"/>
  </g>
</svg>

<svg viewBox="0 0 128 128" xmlns="http://www.w3.org/2000/svg">
  <defs/>
  <path d="M116,4 L12,4 C7.58,4 4,7.58 4,12 L4,116 C4,120.42 7.58,124 12,124 L116,124 C120.42,124 124,120.42 124,116 L124,12 C124,7.58 120.42,4 116,4 Z" fill="#CC3333"/>
  <path d="M109.7,4 L11.5,4 C7.37,4.03 4.03,7.37 4,11.5 L4,109.4 C3.99,113.54 7.34,116.89 11.48,116.9 C11.49,116.9 11.49,116.9 11.5,116.9 L109.6,116.9 C113.74,116.91 117.09,113.56 117.1,109.42 C117.1,109.41 117.1,109.41 117.1,109.4 L117.1,11.5 C117.19,7.45 113.97,4.09 109.92,4 C109.85,4 109.77,4 109.7,4 Z" fill="#F44336"/>
  <path d="M39.7,12.9 C39.7,10.6 38.1,9.9 28.9,10.2 C21.2,10.5 17.4,11.4 15.1,14.2 C12.8,17 12.2,22.7 12.1,29.5 C12.1,34.3 12.1,38.8 14.6,38.8 C18,38.8 18,30.9 20.8,26.5 C26.2,17.8 39.7,15.9 39.7,12.9 Z" fill="#FF8A80"/>
  <path d="M71.6,21.2 C71.27,21.72 70.9,22.22 70.5,22.7 C70.01,23.42 70.09,24.38 70.7,25 C81.5,35.3 93.3,42.1 106.2,47.5 C107.09,47.9 107.5,48.94 107.1,49.84 C107.02,50.01 106.92,50.17 106.8,50.3 C105.39,51.77 104.18,53.42 103.2,55.2 C102.74,56 101.73,56.31 100.9,55.9 C97.3,54.1 93.7,52.3 90.2,50.3 C89.37,49.82 88.32,50.1 87.83,50.93 C87.68,51.2 87.59,51.5 87.6,51.8 L87.6,53.4 C87.61,54.39 86.81,55.19 85.82,55.2 C85.81,55.2 85.81,55.2 85.8,55.2 L41.4,55.2 C40.41,55.21 39.61,54.41 39.6,53.42 C39.6,53.41 39.6,53.41 39.6,53.4 C39.59,52.44 38.81,51.67 37.85,51.67 C37.55,51.67 37.26,51.75 37,51.9 C33.81,53.83 30.5,55.57 27.1,57.1 C26.35,57.44 25.46,57.19 25,56.5 C23.79,54.76 22.49,53.09 21.1,51.5 C20.45,50.77 20.51,49.65 21.24,49 C21.38,48.88 21.53,48.77 21.7,48.7 C38.3,41.6 54.5,30.3 64,16.8 C64.49,16.09 65.42,15.83 66.2,16.2 L71,18.6 C71.87,19.1 72.17,20.21 71.67,21.08 C71.65,21.12 71.63,21.16 71.6,21.2 Z M36,65.1 L92.7,65.1 C93.69,65.09 94.49,65.89 94.5,66.88 C94.5,66.89 94.5,66.89 94.5,66.9 L94.5,101.9 C94.51,102.89 93.71,103.69 92.72,103.7 C92.71,103.7 92.71,103.7 92.7,103.7 L86.8,103.7 C85.81,103.71 85.01,102.91 85,101.92 C85,101.91 85,101.91 85,101.9 L85,101 C85.01,100.01 84.21,99.21 83.22,99.2 C83.21,99.2 83.21,99.2 83.2,99.2 L45,99.2 C44.01,99.19 43.21,99.99 43.2,100.98 C43.2,100.99 43.2,100.99 43.2,101 L43.2,102.3 C43.21,103.29 42.41,104.09 41.42,104.1 C41.41,104.1 41.41,104.1 41.4,104.1 L36,104.1 C35.01,104.11 34.21,103.31 34.2,102.32 C34.2,102.31 34.2,102.31 34.2,102.3 L34.2,66.8 C34.24,65.84 35.04,65.08 36,65.1 Z M43.3,74.8 L43.3,89.1 C43.29,90.09 44.09,90.89 45.08,90.9 C45.09,90.9 45.09,90.9 45.1,90.9 L83.3,90.9 C84.29,90.91 85.09,90.11 85.1,89.12 C85.1,89.11 85.1,89.11 85.1,89.1 L85.1,74.8 C85.11,73.81 84.31,73.01 83.32,73 C83.31,73 83.31,73 83.3,73 L45,73 C44.05,73.07 43.32,73.85 43.3,74.8 Z M80,43.6 C74.87,39.9 69.99,35.86 65.4,31.5 C64.7,30.84 63.59,30.87 62.93,31.57 C62.92,31.58 62.91,31.59 62.9,31.6 C58.74,35.99 54.22,40.04 49.4,43.7 C48.64,44.28 48.5,45.37 49.09,46.13 C49.43,46.57 49.95,46.82 50.5,46.8 L79,46.8 C79.97,46.79 80.75,46 80.75,45.03 C80.74,44.46 80.47,43.93 80,43.6 Z" fill="#FAFAFA"/>
</svg>
